img/icons/inherit.svg

<?xml version="1.0" encoding="utf-8"?>
<!-- Generator: Adobe Illustrator 17.1.0, SVG Export Plug-In . SVG Version: 6.00 Build 0)  -->
<!DOCTYPE svg PUBLIC "-//W3C//DTD SVG 1.1//EN" "http://www.w3.org/Graphics/SVG/1.1/DTD/svg11.dtd">
<svg version="1.1"  xmlns="http://www.w3.org/2000/svg" xmlns:xlink="http://www.w3.org/1999/xlink" x="0px" y="0px"
	 viewBox="0 0 24 24.1667" enable-background="new 0 0 24 24.1667" xml:space="preserve">
<g >
	<rect  y="0.1667" fill="none" width="24" height="24"/>
	<path fill="none" stroke="#000000" stroke-width="2" stroke-miterlimit="10" d="M17,6c0,2.7614-2.2386,5-5,5S7,8.7614,7,6
		s2.2386-5,5-5S17,3.2386,17,6z M4,17c-1.6569,0-3,1.3431-3,3s1.3431,3,3,3s3-1.3431,3-3S5.6569,17,4,17z M17,20
		c0,1.6569,1.3431,3,3,3s3-1.3431,3-3s-1.3431-3-3-3S17,18.3431,17,20z M6.4,18.2L12,15v-4 M17.6,18.2L12,15"/>
</g>
</svg>

<svg xmlns="http://www.w3.org/2000/svg" width="24" height="24" viewBox="0 0 24 24">
  <path fill="none" stroke="#231F1F" stroke-width="2" d="M17,18 L12,15 L17,18 Z M7,18 L12,15 L12,11 M17,20 C17,21.657 18.343,23 20,23 C21.657,23 23,21.657 23,20 C23,18.343 21.657,17 20,17 C18.343,17 17,18.343 17,20 L17,20 L17,20 Z M4,17 C2.343,17 1,18.343 1,20 C1,21.657 2.343,23 4,23 C5.657,23 7,21.657 7,20 C7,18.343 5.657,17 4,17 L4,17 L4,17 Z M17,6 C17,8.761 14.761,11 12,11 C9.239,11 7,8.761 7,6 C7,3.239 9.239,1 12,1 C14.761,1 17,3.239 17,6 L17,6 L17,6 Z"/>
</svg>
